X:69
T:Blow The Man Down (a)
M:3/4
L:1/8
Q:1/4=3D100
K:D
DF|\
ABA|FDF|ABA|FDF|A3 |B3 |G>FG|E2B|
BBB|BGE|CEG|B2d|AAA|A2G|F>EF|D2 ||
